X: 081
T: Pady Whack
%R: jig
Z: 2017 John Chambers <jc:trillian.mit.edu>
B: John Treat - "Gamut for the Fifes", 1779, p.7 #1
F: https://archive.org/details/GamutFortheFifes
M: 6/8
L: 1/8
K: G
% - - - - - - - - - - - - - - - - - - - - - - - - -
D |\
GBd gfg | edc BAG | GBd gfg | fdd d2e/f/ |\
gfg fdB | cec dBG | GBd cAc | BGG G2 :|
|: z |\
BBB ccc | dBG BAG | Bcd efg | fdd d2e/f/ |\
gfg fdB | cec dBG | GBd cAc | BGG G2 :|
% - - - - - - - - - - - - - - - - - - - - - - - - -
